X: 1
T: From Scotia's Shores We're Noo Awa'
C: S.Hamilton
R: strathspey
Z: 1997 by John Chambers <jc:trillian.mit.edu>
M: C
L: 1/8
K: D
A \
| "D"F<A "D7"f>e "G"d2 B>d | "D"A>F G/F/E/D/ "A7"C<E E>G \
| "D"F<A "D7"f>e "G"d2 B>d | "D"Ad "A7"c/d/e/c/ "D"d2- d :|
f/g/ \
| "D"a>f d>f "G"e>d B<d | "D"A>B d>e f2 "F#7"f>e \
| "Bm"d>e f>g "F#m"a>b a>f | "Em"(3gfe f>d "A7"e<e e>f |
y3 \
| "D"d>e f>g "F#m"a>b a>f | "Em"g/f/g/a/ b/a/g/f/ "A7"e2 a>g \
| "D"f<a d<f "G"B>d G<B | "D"A>d "A7"c/d/e/c/ "D"d2- d |]
